X:1
T:THE PACKMAN
M:2/4
Q:1/4=120
K:C
E4^G4|B4e2d2|c6d2|e4d2c2|B6c2|d6e2|c4A4|A8|
d6f2|a4g2f2|e2e2e2c2|e4d2c2|B6c2|e2d2c2B2|
c4A4|A8|d6f2|a4g2f2|e2e2e2c2|e4d2c2|B6c2|
e2d2c2B2|c4A4|A7||
